src/main/resources/img/object/console/Consoles_dark.svg

<svg width="16" height="16" version="1.1" viewBox="0 0 16 16"  xmlns="http://www.w3.org/2000/svg"><rect y="4.0467" width="14" height="2.9533" fill="#73a9d8" fill-rule="evenodd" stroke-width=".92582"/><path d="m2 7.8467h3v5.2h-3z" fill="#999" stroke-width=".24175"/><path d="m3.8 10.58-1.8 1.8669 0.6 0.6223 2.4-2.4892-2.4-2.4892-0.6 0.6223zm-2.8-3.5798h12v8l-12 0.01558z" fill="#f2f2f2" stroke-width="1.0184"/><path d="m0 7v9h14v-9h-1v8h-12v-8z" fill="#999"/><rect x="2" width="14" height="2.9533" fill="#73a9d8" fill-rule="evenodd" stroke-width=".92582"/><rect x="15" y="2.9533" width="1" height="9.0467" fill="#999" stroke-width="1.0026"/></svg>

<svg width="16" height="16" xmlns="http://www.w3.org/2000/svg"><path fill="#73a9d8" fill-rule="evenodd" d="M0 4.047h14V7H0z"/><path d="M2 7.847h3v5.2H2z" fill="#999"/><path d="M3.8 10.58 2 12.447l.6.622L5 10.58 2.6 8.09l-.6.623zM1 7h12v8l-12 .016z" fill="#f2f2f2"/><path d="M0 7v9h14V7h-1v8H1V7z" fill="#999"/><path fill="#73a9d8" fill-rule="evenodd" d="M2 0h14v2.953H2z"/><path fill="#999" d="M15 2.953h1V12h-1z"/></svg>
